X: 45
T: Tongyang xifu huo bucheng
%%abc-version 2.0
%%abcx-abcm2ps-target-version 5.9.1 (29 Sep 2008)
%%abc-creator hum2abc beta
%%abcx-conversion-date 2013/10/02 07:52:29
%%abc-edited-by Helmut Schaffrath
%%humdrum-veritas 2044290037
%%humdrum-veritas-data 3576562036
%%continueall 1
%%barnumbers 0
L: 1/8
M: 2/4
K: G
d ^c/ d/e2 [I:setbarnb 1]| 
e a g e | 
d ^c d g | 
e4 | 
d ^c/ d/e2 | 
e a g e | 
d ^c d e | 
d4 |]  



